static/logos/uipath-wordmark-color.svg

<svg width="100" height="37" viewBox="0 0 100 37" fill="none" xmlns="http://www.w3.org/2000/svg">
<g clip-path="url(#clip0_1_560)">
<path d="M0 0H36.7816V36.7816H0V0ZM32.9563 32.9563V3.82529H3.82529V32.9563H32.9563ZM7.13563 9.48965V20.5977C7.13563 25.6736 9.93103 28.6897 14.6391 28.6897C19.4943 28.6897 22.2897 25.6736 22.2897 20.5977V9.48965H18.4644V20.5977C18.4644 23.4667 17.2138 25.0851 14.7126 25.0851C12.0644 25.0851 10.8874 23.3931 10.8874 20.5977V9.48965H7.13563ZM27.2184 11.7701C28.5425 11.7701 29.5724 10.8138 29.5724 9.48965C29.5724 8.09195 28.6161 7.13563 27.2184 7.13563C25.8943 7.13563 24.8644 8.09195 24.8644 9.48965C24.8644 10.8138 25.8943 11.7701 27.2184 11.7701ZM25.3057 13.5356V28.469H29.131V13.5356H25.3057ZM48.1103 22.3632C52.2299 22.3632 54.9517 19.9356 54.9517 15.8897C54.9517 11.9908 52.3034 9.48965 48.1103 9.48965H40.9011V28.5425H44.7264V22.4368H48.1103V22.3632ZM47.669 19.3471H44.6529V12.5793H47.669C49.8759 12.5793 51.0529 13.8299 51.0529 15.8897C51.0529 18.0966 49.8759 19.3471 47.669 19.3471ZM56.2023 21.0391C56.2023 25.5264 59.0713 28.6897 63.1172 28.6897C65.5448 28.6897 67.0897 27.8069 67.9724 26.4092V28.5425H71.7977V13.5356H67.9724V15.8897C67.0161 14.3448 65.4713 13.3885 63.1172 13.3885C58.9977 13.3885 56.2023 16.6253 56.2023 21.0391ZM67.9724 21.0391C67.9724 23.6138 66.354 25.3057 64 25.3057C61.4253 25.3057 60.1011 23.4667 60.1011 21.0391C60.1011 18.3908 61.5724 16.6989 64 16.6989C66.4276 16.6989 67.9724 18.4644 67.9724 21.0391ZM81.3609 25.2322C79.8896 25.2322 79.5218 24.5701 79.5218 23.246V16.7724H82.8322V13.5356H79.5218V9.41609H75.6966V13.5356H73.931V16.7724H75.6966V23.246C75.6966 26.777 77.2414 28.469 80.9195 28.469H82.9057V25.2322H81.3609ZM88.7908 15.669V8.6069H84.9655V28.5425H88.7908V20.5977C88.7908 18.023 90.1149 16.4782 92.3954 16.4782C94.6023 16.4782 95.7793 17.9494 95.7793 20.2299V28.469H99.6046V19.8621C99.6046 15.9632 96.8092 13.3885 93.2782 13.3885C91.0713 13.3885 89.6736 14.1977 88.7908 15.669Z" fill="#FA4616"/>
</g>
<defs>
<clipPath id="clip0_1_560">
<rect width="100" height="36.7816" fill="white"/>
</clipPath>
</defs>
</svg>

<svg xmlns="http://www.w3.org/2000/svg" width="172.973" height="64" fill="none" viewBox="0 0 100 37"><g clip-path="url(#a)"><path fill="#FA4616" d="M0 0h36.782v36.782H0V0Zm32.956 32.956V3.826H3.826v29.13h29.13ZM7.136 9.49v11.108c0 5.076 2.795 8.092 7.503 8.092 4.855 0 7.65-3.016 7.65-8.092V9.49h-3.825v11.108c0 2.869-1.25 4.487-3.751 4.487-2.649 0-3.826-1.692-3.826-4.487V9.49H7.136Zm20.082 2.28c1.325 0 2.354-.956 2.354-2.28 0-1.398-.956-2.354-2.354-2.354-1.324 0-2.354.956-2.354 2.354 0 1.324 1.03 2.28 2.354 2.28Zm-1.912 1.766v14.933h3.825V13.536h-3.825Zm22.804 8.827c4.12 0 6.842-2.427 6.842-6.473 0-3.9-2.649-6.4-6.842-6.4h-7.209v19.052h3.825v-6.105h3.384v-.074Zm-.441-3.016h-3.016V12.58h3.016c2.207 0 3.384 1.25 3.384 3.31 0 2.208-1.177 3.458-3.384 3.458Zm8.533 1.692c0 4.487 2.87 7.65 6.915 7.65 2.428 0 3.973-.882 4.855-2.28v2.134h3.826V13.536h-3.826v2.354c-.956-1.545-2.5-2.502-4.855-2.502-4.12 0-6.915 3.237-6.915 7.651Zm11.77 0c0 2.575-1.618 4.267-3.972 4.267-2.575 0-3.899-1.84-3.899-4.267 0-2.648 1.471-4.34 3.899-4.34s3.972 1.765 3.972 4.34Zm13.389 4.193c-1.471 0-1.84-.662-1.84-1.986v-6.474h3.311v-3.236h-3.31v-4.12h-3.825v4.12H73.93v3.236h1.766v6.474c0 3.531 1.544 5.223 5.222 5.223h1.987v-3.237H81.36Zm7.43-9.563V8.607h-3.825v19.936h3.825v-7.945c0-2.575 1.324-4.12 3.604-4.12 2.207 0 3.384 1.471 3.384 3.752v8.239h3.826v-8.607c0-3.899-2.796-6.473-6.327-6.473-2.207 0-3.604.809-4.487 2.28Z"/></g><defs><clipPath id="a"><path fill="#fff" d="M0 0h100v36.782H0z"/></clipPath></defs></svg>
